X:3379
T:La Casa di Vronovsky - Sessionversion
O:england
C:La Ciapa Rusa
M:2/4
L:1/16
K:C
AGAB c2 A2|BABc d4|e2 dc B2d2|cdcB c2 A2|
AGAB c2 A2|BABc d4|e2 dc B2d2|cdcB A4:|\
|:A2 ce d2 B2|G^FGA =F4|fedc BDGB|dcBc A4:|


